img/icons/ic_my_partner.svg

<?xml version="1.0" encoding="UTF-8"?>
<svg width="44px" height="34px" viewBox="0 0 44 34" version="1.1" xmlns="http://www.w3.org/2000/svg" xmlns:xlink="http://www.w3.org/1999/xlink">
    <!-- Generator: Sketch 46.2 (44496) - http://www.bohemiancoding.com/sketch -->
    <title>ic_my_partner</title>
    <desc>Created with Sketch.</desc>
    <defs></defs>
    <g id="visual" stroke="none" stroke-width="1" fill="none" fill-rule="evenodd">
        <g id="Home" transform="translate(-645.000000, -2643.000000)" fill="#F52B22">
            <g id="ic_my_partner" transform="translate(637.000000, 2629.000000)">
                <circle id="Oval-4" cx="14" cy="20" r="6"></circle>
                <path d="M8.31671843,31.3665726 L9.17082039,29.6583687 L9.17082039,29.6583687 C9.67899644,28.6420166 10.7177858,28.0000095 11.854102,28.0000095 L14.6789347,28.0000095 L14.6789347,28.0000089 C15.5115953,28.0000089 16.3068003,28.3460727 16.8742886,28.9554008 C18.0940854,30.2651309 19.1359892,31.2800005 20,32.0000095 C21.063706,32.8864312 23.7303727,34.2197645 28,36.0000095 L28,40.0000095 L20,37.0000095 L20,45.0000095 L20,45.0000095 C20,46.6568637 18.6568542,48.0000095 17,48.0000095 L11,48.0000095 L11,48.0000095 C9.34314575,48.0000095 8,46.6568637 8,45.0000095 L8,32.7082134 L8,32.7082134 C8,32.2424781 8.10843528,31.7831389 8.31671843,31.3665726 Z" id="Rectangle"></path>
                <circle id="Oval-4" transform="translate(46.000000, 20.000000) scale(-1, 1) translate(-46.000000, -20.000000) " cx="46" cy="20" r="6"></circle>
                <path d="M32.3167184,31.3665726 L33.1708204,29.6583687 L33.1708204,29.6583687 C33.6789964,28.6420166 34.7177858,28.0000095 35.854102,28.0000095 L38.6789347,28.0000095 L38.6789347,28.0000089 C39.5115953,28.0000089 40.3068003,28.3460727 40.8742886,28.9554008 C42.0940854,30.2651309 43.1359892,31.2800005 44,32.0000095 C45.063706,32.8864312 47.7303727,34.2197645 52,36.0000095 L52,40.0000095 L44,37.0000095 L44,45.0000095 L44,45.0000095 C44,46.6568637 42.6568542,48.0000095 41,48.0000095 L35,48.0000095 L35,48.0000095 C33.3431458,48.0000095 32,46.6568637 32,45.0000095 L32,32.7082134 L32,32.7082134 C32,32.2424781 32.1084353,31.7831389 32.3167184,31.3665726 Z" id="Rectangle" transform="translate(42.000000, 38.000009) scale(-1, 1) translate(-42.000000, -38.000009) "></path>
            </g>
        </g>
    </g>
</svg>

<svg width="44" height="34" viewBox="0 0 44 34" xmlns="http://www.w3.org/2000/svg"><title>ic_my_partner</title><g transform="translate(-8 -14)" fill="#F52B22" fill-rule="evenodd"><circle cx="14" cy="20" r="6"/><path d="M8.317 31.367l.854-1.709A3 3 0 0 1 11.854 28h2.825a3 3 0 0 1 2.195.955C18.094 30.265 19.136 31.28 20 32c1.064.886 3.73 2.22 8 4v4l-8-3v8a3 3 0 0 1-3 3h-6a3 3 0 0 1-3-3V32.708a3 3 0 0 1 .317-1.341z"/><circle transform="matrix(-1 0 0 1 92 0)" cx="46" cy="20" r="6"/><path d="M51.683 31.367l-.854-1.709A3 3 0 0 0 48.146 28H45.32a3 3 0 0 0-2.195.955C41.906 30.265 40.864 31.28 40 32c-1.064.886-3.73 2.22-8 4v4l8-3v8a3 3 0 0 0 3 3h6a3 3 0 0 0 3-3V32.708a3 3 0 0 0-.317-1.341z"/></g></svg>
